src/icons/arrow-left-b.svg

<svg xmlns="http://www.w3.org/2000/svg" width="512" height="512" viewBox="0 0 512 512">
    <path d="M327.3 92.4l-2.1 1.8-156.6 136c-5.3 4.6-8.6 11.5-8.6 19.2 0 7.7 3.4 14.6 8.6 19.2l156.3 135.9 2.6 2.3c2.5 1.7 5.5 2.7 8.7 2.7 8.7 0 15.8-7.4 15.8-16.6V106.1c0-9.2-7.1-16.6-15.8-16.6-3.3 0-6.4 1.1-8.9 2.9z"/>
</svg>

<?xml version="1.0" encoding="UTF-8"?>
<svg width="512px" height="512px" viewBox="0 0 512 512" version="1.1" xmlns="http://www.w3.org/2000/svg" xmlns:xlink="http://www.w3.org/1999/xlink">
    <!-- Generator: Sketch 62 (91390) - https://sketch.com -->
    <title>arrow-left-b</title>
    <desc>Created with Sketch.</desc>
    <g id="arrow-left-b" stroke="none" stroke-width="1" fill="none" fill-rule="evenodd">
        <path d="M327.3,92.4 L325.2,94.2 L168.6,230.2 C163.3,234.8 160,241.7 160,249.4 C160,257.1 163.4,264 168.6,268.6 L324.9,404.5 L327.5,406.8 C330,408.5 333,409.5 336.2,409.5 C344.9,409.5 352,402.1 352,392.9 L352,106.1 C352,96.9 344.9,89.5 336.2,89.5 C332.9,89.5 329.8,90.6 327.3,92.4 Z" id="Path" fill="#000000" fill-rule="nonzero"></path>
    </g>
</svg>
